packages/vapor/resources/icons/svg/copy.svg

<svg viewBox="0 0 16 16" xmlns="http://www.w3.org/2000/svg"><path d="m13.3 3h-2.5v-1c0-1.3-.6-2-1.9-2h-6.1c-1.3 0-2 .7-2 2v9c0 1.3.6 2 2 2h2.5v1c0 1.3.6 2 2 2h6.1c1.3 0 1.9-.7 1.9-2v-9c-.1-1.3-.7-2-2-2zm-10.5 9c-.6 0-1-.4-1-1v-9c0-.6.3-1 1-1h6c.7 0 1 .4 1 1v9c0 .6-.3 1-1 1zm11.4 2c0 .6-.3 1-1 1h-6c-.6 0-1-.4-1-1v-1h2.6c1.3 0 1.9-.7 1.9-2v-7h2.5c.7 0 1 .4 1 1z"/><path d="m2.9 7v-.9h5.8v.9zm0-2.4v-.9h5.8v.9zm0 4.8v-.9h5.8v.9z"/></svg>

<svg xmlns="http://www.w3.org/2000/svg" viewBox="0 0 16 16"><path d="M13.3,3h-2.5V2c0-1.3-0.6-2-1.9-2H2.8c-1.3,0-2,0.7-2,2v9c0,1.3,0.6,2,2,2h2.5v1c0,1.3,0.6,2,2,2h6.1c1.3,0,1.9-0.7,1.9-2V5 C15.2,3.7,14.6,3,13.3,3z M2.8,12c-0.6,0-1-0.4-1-1V2c0-0.6,0.3-1,1-1h6c0.7,0,1,0.4,1,1v9c0,0.6-0.3,1-1,1C8.8,12,2.8,12,2.8,12z M14.2,14c0,0.6-0.3,1-1,1h-6c-0.6,0-1-0.4-1-1v-1h2.6c1.3,0,1.9-0.7,1.9-2V4h2.5c0.7,0,1,0.4,1,1V14L14.2,14z"/><path d="M2.9,7V6.1h5.8V7H2.9z M2.9,4.6V3.7h5.8v0.9H2.9z M2.9,9.4V8.5h5.8v0.9H2.9z"/></svg>
